!!!!SEGMENT: pl-kk--kk-i-376--003_fierszewicz-daniel--adoro-te-devote.krn
!!!cenid: 17xx:1977
!!!COM: Fierszewicz, Daniel
!!!COM-rismID: pe30021418
!!!CDT: <1702->1734
!!!CNT:
!!!OTL: Adoro Te devote
!!!PDT:
!!!AGN: Sacred
!!!SMS-siglum: PL-Kk
!!!SMS-shelfmark: Kk.I.376
!!!SMS-shelfwork: 003 W
!!!SMS-variant:
!!!SMS-altvar:
!!!NIFC-rismSourceID: 1001144510
!!!NIFC-islandoraID: pl-kk:6096
!!!URL-pdf-islandora: https://repozytorium.nifc.pl/islandora/object/pl-kk%3A6096/datastream/PDF/view
!!!URL-scan: https://polish.musicsources.pl/pl/lokalizacje/galeria/rekopisy/5988 @EN{Scan on Polish Music Herritage in Open Access Website} @PL{Skany w portalu Dziedzictwo Muzyki Polskiej w otwartym dostępie}
!!!ONB-nifc: UWAGA: utwory w zbiorze: 1. Verbum supernum, 2. Sactris solemniis, 3. Adoro Te devote
!!!AIN: 1 alto 1 bass 1 soprn 1 tenor
!!!key:
**kern	**text	**text	**text	**text	**text	**text	**kern	**text	**text	**text	**text	**text	**text	**kern	**text	**text	**text	**text	**text	**text	**kern	**text	**text	**text	**text	**text	**text
*part4	*part4	*part4	*part4	*part4	*part4	*part4	*part3	*part3	*part3	*part3	*part3	*part3	*part3	*part2	*part2	*part2	*part2	*part2	*part2	*part2	*part1	*part1	*part1	*part1	*part1	*part1	*part1
*staff4	*staff4	*staff4	*staff4	*staff4	*staff4	*staff4	*staff3	*staff3	*staff3	*staff3	*staff3	*staff3	*staff3	*staff2	*staff2	*staff2	*staff2	*staff2	*staff2	*staff2	*staff1	*staff1	*staff1	*staff1	*staff1	*staff1	*staff1
*Ibass	*	*	*	*	*	*	*Itenor	*	*	*	*	*	*	*Ialto	*	*	*	*	*	*	*Isoprn	*	*	*	*	*	*
*I"Basso	*	*	*	*	*	*	*I"Tenor	*	*	*	*	*	*	*I"[Alto]	*	*	*	*	*	*	*I"[Canto]	*	*	*	*	*	*
*I'B	*	*	*	*	*	*	*I'T	*	*	*	*	*	*	*I'A	*	*	*	*	*	*	*I'C	*	*	*	*	*	*
*clefF4	*	*	*	*	*	*	*clefC4	*	*	*	*	*	*	*clefC3	*	*	*	*	*	*	*clefC1	*	*	*	*	*	*
*k[]	*	*	*	*	*	*	*k[]	*	*	*	*	*	*	*k[]	*	*	*	*	*	*	*k[]	*	*	*	*	*	*
*a:	*	*	*	*	*	*	*a:	*	*	*	*	*	*	*a:	*	*	*	*	*	*	*a:	*	*	*	*	*	*
*M2/2	*	*	*	*	*	*	*M2/2	*	*	*	*	*	*	*M2/2	*	*	*	*	*	*	*M2/2	*	*	*	*	*	*
*met(c|)	*	*	*	*	*	*	*met(c|)	*	*	*	*	*	*	*met(c|)	*	*	*	*	*	*	*met(c|)	*	*	*	*	*	*
=1-	=1-	=1-	=1-	=1-	=1-	=1-	=1-	=1-	=1-	=1-	=1-	=1-	=1-	=1-	=1-	=1-	=1-	=1-	=1-	=1-	=1-	=1-	=1-	=1-	=1-	=1-	=1-
*all\right	*	*	*	*	*	*	*all\right	*	*	*	*	*	*	*all\right	*	*	*	*	*	*	*all\right	*	*	*	*	*	*
*2\right	*	*	*	*	*	*	*2\right	*	*	*	*	*	*	*	*	*	*	*	*	*	*	*	*	*	*	*	*
!	!	!	!	!	!	!	!	!	!	!	!	!	!	!	!	!	!	!	!	!	!LO:TX:a:t=P:problem=kreska pseudotaktowa	!	!	!	!	!	!
!	!	!	!	!	!	!	!	!	!	!	!	!	!	!LO:TX:a:t=D. Fierßewic	!	!	!	!	!	!	!LO:TX:a:t=D F.	!	!	!	!	!	!
2A\	A-	Vi-	In	O	Pi-	JE-	2.c\	A-	Vi-	In	O	Pi-	JE-	1e	1 A-	2 Vi-	3 In	4 O	5 Pi-	6 JE-	1a	A-	2 Vi-	3 In	4 O	5 Pi-	6 JE-
(4A\	.	.	.	.	.	.	.	.	.	.	.	.	.	.	.	.	.	.	.	.	.	.	.	.	.	.	.
!LO:TX:a:t=P:problem=kreska pseudotaktowa	!	!	!	!	!	!	!LO:TX:a:t=P:problem=kreska pseudotaktowa	!	!	!	!	!	!	!	!	!	!	!	!	!	!	!	!	!	!	!	!
4G\)	.	.	.	.	.	.	4B\	.	.	.	.	.	.	.	.	.	.	.	.	.	.	.	.	.	.	.	.
*	*	*	*	*	*	*	*	*	*	*	*	*	*	*2\right	*	*	*	*	*	*	*2\right	*	*	*	*	*	*
2.F\	-do-	-ſus,	Cru-	me-	-e	-SU	2.A/	-do-	-ſus,	Cru-	me-	-e	-SU	2.f\	-do-	-sus	Cru-	me-	-e	-SU	2.cc\	-do-	-sus	Cru-	me-	-e	-SU
!LO:TX:a:t=P:problem=kreska pseudotaktowa	!	!	!	!	!	!	!LO:TX:a:t=P:problem=kreska pseudotaktowa	!	!	!	!	!	!	!LO:TX:a:t=P:problem=kreska pseudotaktowa	!	!	!	!	!	!	!LO:TX:a:t=P:problem=kreska pseudotaktowa	!	!	!	!	!	!
4F\	-ro	tac-	-ce	-mo-	Pe-	quem	4A/	-ro	tac-	-ce	-mo-	Pe-	quem	4f\	-ro	tac-	-ce	-mo-	pe-	quem	4dd\	-ro	tac-	-ce	-mo-	pe-	quem
=2-	=2-	=2-	=2-	=2-	=2-	=2-	=2-	=2-	=2-	=2-	=2-	=2-	=2-	=2-	=2-	=2-	=2-	=2-	=2-	=2-	=2-	=2-	=2-	=2-	=2-	=2-	=2-
2E,<\	te	-tus,	la-	-ri-	-li-	ve-	2G/	te	-tus,	la-	-ri-	-li-	ve-	2g\	te	-tus	la-	-ri-	-li-	ve-	2ee\	te	-tus	la-	-ri-	-li-	ve-
!LO:TX:a:t=P:problem=kreska pseudotaktowa	!	!	!	!	!	!	!LO:TX:a:t=P:problem=kreska pseudotaktowa	!	!	!	!	!	!	!	!	!	!	!	!	!	!LO:TX:a:t=P:problem=kreska pseudotaktowa	!	!	!	!	!	!
2C/	de-	guſ-	-te-	-a-	-ca-	-la-	2c\	de-	gus-	-te-	-a-	-ca-	-la-	2e\	de-	gus-	-te-	-a-	-ca-	-la-	2ee\	de-	gus-	-te-	-a-	-ca-	-la-
2D/	-vo-	-tus,	-bat	-le	-ne	-tum	4B\	-vo-	-tus	-bat	-le	-ne	-tum	2f\	-vo-	-tus	-bat	-le	-ne	-tum	2dd\	-vo-	-tus	-bat	-le	-ne	-tum
.	.	.	.	.	.	.	4A\	.	.	.	.	.	.	.	.	.	.	.	.	.	.	.	.	.	.	.	.
!	!	!	!	!	!	!	!LO:TX:a:t=P:problem=kreska pseudotaktowa	!	!	!	!	!	!	!	!	!	!	!	!	!	!	!	!	!	!	!	!
1F	-te	in	So-	mor-	JE-	nunc	2G/	-te	in	So-	mor-	JE-	nunc	4e\	-te	in	ſo-	mor-	JE-	Nunc	2cc\	-te	in	So-	mor-	JE-	Nunc
!	!	!	!	!	!	!	!	!	!	!	!	!	!	!LO:TX:a:t=P:problem=kreska pseudotaktowa	!	!	!	!	!	!	!	!	!	!	!	!	!
.	.	.	.	.	.	.	.	.	.	.	.	.	.	4d\	.	.	.	.	.	.	.	.	.	.	.	.	.
=3-	=3-	=3-	=3-	=3-	=3-	=3-	=3-	=3-	=3-	=3-	=3-	=3-	=3-	=3-	=3-	=3-	=3-	=3-	=3-	=3-	=3-	=3-	=3-	=3-	=3-	=3-	=3-
.	.	.	.	.	.	.	4A\	la-	te	-la	-tis	-SU	aſ-	2c/	la-	te	-la	-tis	-SU	as-	2a\	la-	te	-la	-tis	-SU	as-
.	.	.	.	.	.	.	4B\	.	.	.	.	.	.	.	.	.	.	.	.	.	.	.	.	.	.	.	.
!LO:TX:a:t=P:problem=kreska pseudotaktowa	!	!	!	!	!	!	!	!	!	!	!	!	!	!	!	!	!	!	!	!	!	!	!	!	!	!	!
2E\	la-	te	-la	-tis	-SU	aſ-	1c	-tens	fal-	De-	Do-	D(o-	-pi-	2e\	-tens	fal-	De-	Do-	D(o-	-pi-	1cc	-tens	fal-	De-	Do-	D(o-	-pi-
2.D/	-tens	fal-	De-	Do-	D(o-	-pi-	.	.	.	.	.	.	.	2.f\	.	.	.	.	.	.	.	.	.	.	.	.	.
!	!	!	!	!	!	!	!LO:TX:a:t=P:problem=kreska pseudotaktowa	!	!	!	!	!	!	!	!	!	!	!	!	!	!LO:TX:a:t=P:problem=kreska pseudotaktowa	!	!	!	!	!	!
.	.	.	.	.	.	.	2B\	Dei-	-li-	-i-	-mi-	-mi)-	-ci-	.	.	.	.	.	.	.	2b\	Dei-	-li-	-i-	-mi-	-mi)-	-ci-
4D/	Dei-	-li-	-i-	-mi-	-mi)-	-ci-	.	.	.	.	.	.	.	4f\	Dei-	-li-	-i-	-mi-	-mi)-	-ci-	.	.	.	.	.	.	.
=4-	=4-	=4-	=4-	=4-	=4-	=4-	=4-	=4-	=4-	=4-	=4-	=4-	=4-	=4-	=4-	=4-	=4-	=4-	=4-	=4-	=4-	=4-	=4-	=4-	=4-	=4-	=4-
!LO:TX:a:t=P:problem=kreska pseudotaktowa	!	!	!	!	!	!	!LO:TX:a:t=P:problem=kreska pseudotaktowa	!	!	!	!	!	!	!LO:TX:a:t=P:problem=kreska pseudotaktowa	!	!	!	!	!	!	!	!	!	!	!	!	!
1C	-tas	-tur,	-tas	-ni,	-ne,	-o,	1c	-tas,	-tur,	-tas,	-ni,	-ne,	-o,	1e	-tas	-tur	-tas	-ni	-ne	-o	1cc	-tas	-tur	-tas	-ni	-ne	-o
2.G\	Quae	Sed	At	Pa-	me	O-	2.d\	Quae	Sed	At	Pa-	me	O-	2.g\	Quae	ſed	at	Pa-	Me	O-	2.b\	Quae	Sed	At	Pa-	Me	O-
!LO:TX:a:t=P:problem=kreska pseudotaktowa	!	!	!	!	!	!	!LO:TX:a:t=P:problem=kreska pseudotaktowa	!	!	!	!	!	!	!	!	!	!	!	!	!	!LO:TX:a:t=P:problem=kreska pseudotaktowa	!	!	!	!	!	!
4G\	ſub	au-	hic	-nis	im-	-ro	4d\	ſub	au-	hic	-nis	im-	-ro	4g\	ſub	au-	hic	-nis	im-	-ro	4b\	Sub	au-	hic	-nis	im-	-ro
=5-	=5-	=5-	=5-	=5-	=5-	=5-	=5-	=5-	=5-	=5-	=5-	=5-	=5-	=5-	=5-	=5-	=5-	=5-	=5-	=5-	=5-	=5-	=5-	=5-	=5-	=5-	=5-
2E\	his	-di-	la-	vi-	-mun-	fi-	2e\	his	-di-	la-	vi-	-mun-	fi-	2g\	his	-di-	la-	Vi-	-mun-	fi-	2cc\	his	-di-	la-	Vi-	-mun-	fi-
!	!	!	!	!	!	!	!LO:TX:a:t=P:problem=kreska pseudotaktowa	!	!	!	!	!	!	!LO:TX:a:t=P:problem=kreska pseudotaktowa	!	!	!	!	!	!	!LO:TX:a:t=P:problem=kreska pseudotaktowa	!	!	!	!	!	!
2G\	fi-	-tu	-tet	-vus	-dum	-at	2d\	fi-	-tu	-tet	-vus	-dum	-at	2g\	fi-	-tu	-tet	-vus	-dum	-at	2b\	fi-	-tu	-tet	-vus	-dum	-at
2c\	-gu-	So-	si-	vi-	mun-	il-	2e\	-gu-	So-	si-	vi-	mun-	il-	2e\	-gu-	ſo-	ſi-	vi-	Mun-	il-	2cc\	-gu-	So-	Si-	vi-	mun-	il-
!LO:TX:a:t=P:problem=kreska pseudotaktowa	!	!	!	!	!	!	!LO:TX:a:t=P:problem=kreska pseudotaktowa	!	!	!	!	!	!	!	!	!	!	!	!	!	!LO:TX:a:t=P:problem=kreska pseudotaktowa	!	!	!	!	!	!
2B\	-ris	-lo	-mul	-tam	-da	-lud	2d\	-ris	-lo	-mul	-tam	-da	-lud	2g\	-ris	-lo	-mul	-tam	-da	-lud	2dd\	-ris	-lo	-mul	-tam	-da	-lud
=6-	=6-	=6-	=6-	=6-	=6-	=6-	=6-	=6-	=6-	=6-	=6-	=6-	=6-	=6-	=6-	=6-	=6-	=6-	=6-	=6-	=6-	=6-	=6-	=6-	=6-	=6-	=6-
2A\	ve-	tu-	et	p(rae)-	tu-	quod	2c\	ve-	tu-	et	p(rae)-	tu-	quod	2f#X\	ve-	tu-	et	prae-	tu-	quod	2a\	ve-	tu-	et	prae-	tu-	quod
!LO:TX:a:t=P:problem=kreska pseudotaktowa	!	!	!	!	!	!	!LO:TX:a:t=P:problem=kreska pseudotaktowa	!	!	!	!	!	!	!LO:TX:a:t=P:problem=kreska pseudotaktowa	!	!	!	!	!	!	!LO:TX:a:t=P:problem=kreska pseudotaktowa	!	!	!	!	!	!
2G\	-re	-to	hu-	-ſtans	-o	tam	2B\	-re	-to	hu-	-ſtans	-o	tam	2g\	-re	-to	hu-	-stans	-o	tam	2b\	-re	-to	hu-	-ſtans	-o	tam
2.D/	la-	cre-	-ma-	ho-	ſan-	ſi-	2.A/	la-	cre-	-ma-	h(o-	San-	si-	2.g\	la-	cre-	-ma-	ho-	San-	ſi-	2.a\	la-	cre-	-ma-	ho-	San-	si-
!	!	!	!	!	!	!	!	!	!	!	!	!	!	!LO:TX:a:t=P:problem=# above	!	!	!	!	!	!	!	!	!	!	!	!	!
4D/	-ti-	-di-	-ni-	-mi-	-gui-	-ti-	4A/	-ti-	-di-	-ni-	-mi)-	-gui-	-ti-	4f#X\	-ti-	-di-	-ni-	-mi-	-gui-	-ti-	4a\	-ti-	-di-	-ni-	-mi-	-gui-	-ti-
=7-	=7-	=7-	=7-	=7-	=7-	=7-	=7-	=7-	=7-	=7-	=7-	=7-	=7-	=7-	=7-	=7-	=7-	=7-	=7-	=7-	=7-	=7-	=7-	=7-	=7-	=7-	=7-
!LO:TX:a:t=P:problem=kreska pseudotaktowa	!	!	!	!	!	!	!LO:TX:a:t=P:problem=kreska pseudotaktowa	!	!	!	!	!	!	!LO:TX:a:t=P:problem=kreska pseudotaktowa	!	!	!	!	!	!	!LO:TX:a:t=P:problem=kreska pseudotaktowa	!	!	!	!	!	!
1GG	-tas,	-tur	-tas,	-ni,	-ne	-o,	1B	-tas,	-tur,	-tas,	-ni	-ne,	-o,	1g	-tas	-tur	-tas	-ni	-ne	-o	1b	-tas	-tur	-tas	-ni	-ne	-o
2.C/	ti-	cre-	am-	Pre-	cu-	Ut	2.c\	ti-	Cre-	Am-	Pre-	cu-	Ut	2.e\	Ti-	cre-	am-	Pre-	Cu-	Ut	2.ee\	Ti-	Cre-	Am-	Prae-	Cu-	Ut
!LO:TX:a:t=P:problem=kreska pseudotaktowa	!	!	!	!	!	!	!LO:TX:a:t=P:problem=kreska pseudotaktowa	!	!	!	!	!	!	!	!	!	!	!	!	!	!	!	!	!	!	!	!
4C/	-bi	-do	-bo	-ſta	-ius	te	4c\	-bi	-do	-bo	-ſta	-ius	te	4e\	-bi	-do	-bo	-sta	-ius	te	4ee\	-bi	-do	-bo	-ſta	-ius	te
=8-	=8-	=8-	=8-	=8-	=8-	=8-	=8-	=8-	=8-	=8-	=8-	=8-	=8-	=8-	=8-	=8-	=8-	=8-	=8-	=8-	=8-	=8-	=8-	=8-	=8-	=8-	=8-
2F\	se	quid-	ta-	me-	U-	re-	2c\	ſe	quid-	ta-	me-	U-	re-	2fny\	se	quid-	ta-	me-	U-	re-	2cc\	se	quid-	ta-	me-	U-	re-
!	!	!	!	!	!	!	!LO:TX:a:t=P:problem=kreska pseudotaktowa	!	!	!	!	!	!	!LO:TX:a:t=P:problem=kreska pseudotaktowa	!	!	!	!	!	!	!LO:TX:a:t=P:problem=kreska pseudotaktowa	!	!	!	!	!	!
2E\	cor	-quid	-men	-ae	-na	-ve-	2c\	cor	-quid	-men	-ae	-na	-ve-	2g\	cor	-quid	-men	-ae	-na	-ve-	2ee\	cor	-quid	-men	-ae	-na	-ve-
2A\	me-	di-	cre-	men-	stil-	-la-	2A/	me-	di-	cre-	men-	ſtil-	-la-	2e\	me-	di-	cre-	men-	stil-	-la-	2cc\	me-	di-	cre-	men-	stil-	-la-
!LO:TX:a:t=P:problem=kreska pseudotaktowa	!	!	!	!	!	!	!LO:TX:a:t=P:problem=kreska pseudotaktowa	!	!	!	!	!	!	!	!	!	!	!	!	!	!LO:TX:a:t=P:problem=kreska pseudotaktowa	!	!	!	!	!	!
2G\	-u(m)	-xit	-dens	-ti	-la	-ta	4B\	-um	-xit	-dens	-ti	-la	-ta	2g\	-um	-xit	-dens	-ti	-la	-ta	2dd\	-um	-xit	-dens	-ti	-la	-ta
.	.	.	.	.	.	.	4c\	to-	De-	at-	de	ſal-	cer-	.	.	.	.	.	.	.	.	.	.	.	.	.	.
=9-	=9-	=9-	=9-	=9-	=9-	=9-	=9-	=9-	=9-	=9-	=9-	=9-	=9-	=9-	=9-	=9-	=9-	=9-	=9-	=9-	=9-	=9-	=9-	=9-	=9-	=9-	=9-
2F\	to-	De-	at-	de	sal-	cer-	2d\	-tum	-i	-q(ue)	te	-vu(m)	-nens	4d\	to-	DE-	at-	de	ſal-	cer-	2dd\	to-	DE-	at-	de	Sal-	cer-
.	.	.	.	.	.	.	.	.	.	.	.	.	.	4e\	.	.	.	.	.	.	.	.	.	.	.	.	.
*custos:E	*	*	*	*	*	*	*custos:c	*	*	*	*	*	*	*custos:g	*	*	*	*	*	*	*	*	*	*	*	*	*
!LO:TX:a:t=P:problem=kreska pseudotaktowa	!	!	!	!	!	!	!LO:TX:a:t=P:problem=kreska pseudotaktowa	!	!	!	!	!	!	!LO:TX:a:t=P:problem=kreska pseudotaktowa	!	!	!	!	!	!	!	!	!	!	!	!	!
2D/	-tum	-i	-q(ue)	te	-vum	-nens	1d	ſu-	Fi-	con-	vi-	fa-	fa-	2f#X\	-tum	-I	-q(ue)	te	-vum	-nens	2dd\	-tum	-I	-q(ue)	te	-vum	-nens
!LO:LB:g=original	!	!	!	!	!	!	!	!	!	!	!	!	!	!LO:LB:g=original	!	!	!	!	!	!	!	!	!	!	!	!	!
2.E\	Sub-	Fi-	con-	vi-	fa-	fa-	.	.	.	.	.	.	.	2.g\	ſub-	Fi-	con-	vi-	fa-	fa-	2.g/	sub-	Fi-	con-	vi-	fa-	fa-
!	!	!	!	!	!	!	!LO:LB:g=original	!	!	!	!	!	!	!	!	!	!	!	!	!	!	!	!	!	!	!	!
!	!	!	!	!	!	!	!LO:TX:a:t=P:problem=kreska pseudotaktowa	!	!	!	!	!	!	!	!	!	!	!	!	!	!	!	!	!	!	!	!
.	.	.	.	.	.	.	2c\	-bji-	-li-	fi-	-ve-	-ce-	-ci-	.	.	.	.	.	.	.	.	.	.	.	.	.	.
4E\	-ji-	-li-	fi-	-ve-	-ce-	-ci-	.	.	.	.	.	.	.	4g\	-ji-	-li-	fi-	-ve-	-ce-	-ci-	4g/	-ji-	-li-	fi-	-ve-	-ce-	-ci-
=10-	=10-	=10-	=10-	=10-	=10-	=10-	=10-	=10-	=10-	=10-	=10-	=10-	=10-	=10-	=10-	=10-	=10-	=10-	=10-	=10-	=10-	=10-	=10-	=10-	=10-	=10-	=10-
*	*	*	*	*	*	*	*	*	*	*	*	*	*	*	*	*	*	*	*	*	*custos:cc	*	*	*	*	*	*
!	!	!	!	!	!	!	!	!	!	!	!	!	!	!	!	!	!	!	!	!	!LO:TX:a:t=P:problem=kreska pseudotaktowa	!	!	!	!	!	!
!LO:TX:a:t=P:problem=kreska pseudotaktowa	!	!	!	!	!	!	!LO:TX:a:t=P:problem=kreska pseudotaktowa	!	!	!	!	!	!	!LO:TX:a:t=P:problem=kreska pseudotaktowa	!	!	!	!	!	!	!	!	!	!	!	!	!
1D	-cit	-us	-tens,	-re,	-re,	-e,	1d	-cit	-us	-tens	-re	-re	-e	1f#X	-cit	-us	-tens	-re	-re	-e	1a	-cit	-us	-tens	-re	-re	-e
!LO:SIC:v:l:s=Nil:verse 2	!	!	!	!	!	!	!	!	!	!	!	!	!	!	!	!	!	!	!	!	!LO:LB:g=original	!	!	!	!	!	!
2.AA/	Qui-	in	pe-	et	to-	vi-	2.c\	Qui-	Nil	Pe-	Et	To-	Vi-	2.e\	Qui-	Nil	Pe-	et	to-	Vi-	2.cc\	Qui-	Nil	Pe-	Et	To-	Vi-
!	!	!	!	!	!	!	!	!	!	!	!	!	!	!	!	!	!	!	!	!	!LO:TX:a:t=P:problem=kreska pseudotaktowa	!	!	!	!	!	!
4AA/	-a	hoc	-to	te	-tum	-ſu	4c\	-a	hoc	-to	te	-tum	-su	4e\	-a	hoc	-to	te	-tum	-ſu	4cc\	-a	hoc	-to	te	-tum	-ſu
=11-	=11-	=11-	=11-	=11-	=11-	=11-	=11-	=11-	=11-	=11-	=11-	=11-	=11-	=11-	=11-	=11-	=11-	=11-	=11-	=11-	=11-	=11-	=11-	=11-	=11-	=11-	=11-
2C/	te	ver-	quod	il-	mun-	Sim	2e\	te	ver-	quod	il-	mun-	Sim	2e\	te	ver-	quod	il-	Mun-	ſim	2cc\	te	ver-	quod	il-	Mun-	Sim
!LO:TX:a:t=P:problem=kreska pseudotaktowa	!	!	!	!	!	!	!	!	!	!	!	!	!	!LO:TX:a:t=P:problem=kreska pseudotaktowa	!	!	!	!	!	!	!	!	!	!	!	!	!
2AA/	con-	-bo	pe-	-li	-du(m)	be-	4d\	con-	-bo	pe-	-li	-dum	be-	2fny\	con-	-bo	pe-	-li	-dum	be-	4b\	con-	-bo	pe-	-li	-dum	be-
!	!	!	!	!	!	!	!LO:TX:a:t=P:problem=kreska pseudotaktowa	!	!	!	!	!	!	!	!	!	!	!	!	!	!LO:TX:a:t=P:problem=kreska pseudotaktowa	!	!	!	!	!	!
.	.	.	.	.	.	.	4c\	.	.	.	.	.	.	.	.	.	.	.	.	.	4a\	.	.	.	.	.	.
2E\	-tem-	ve-	-ti-	Sem-	quit	-a-	2B\	-tem-	ve-	-ti-	sem-	quit	-a-	2g\	-tem-	ve-	-ti-	Sem-	quit	-a-	2g/	-tem-	ve-	-ti-	Sem-	quit	-a-
!LO:TX:a:t=P:problem=kreska pseudotaktowa	!	!	!	!	!	!	!	!	!	!	!	!	!	!	!	!	!	!	!	!	!	!	!	!	!	!	!
2C/	-plans	-ri-	-vit	-per	ab	-tus	2c\	-plans	-ri-	-vit	-per	ab	-tus	2g\	-plans	-ri-	-vit	-per	ab	-tus	2cc\	-plans	-ri-	-vit	-per	ab	-tus
=12-	=12-	=12-	=12-	=12-	=12-	=12-	=12-	=12-	=12-	=12-	=12-	=12-	=12-	=12-	=12-	=12-	=12-	=12-	=12-	=12-	=12-	=12-	=12-	=12-	=12-	=12-	=12-
2F\	to-	-ta	la-	dul-	om-	tu-	2A/	to-	-ta-	la-	dul-	om-	tu-	2f\	to-	-ta-	la-	dul-	om-	tu-	2a\	to-	-ta-	la-	dul-	om-	tu-
!	!	!	!	!	!	!	!LO:TX:a:t=P:problem=kreska pseudotaktowa	!	!	!	!	!	!	!LO:TX:a:t=P:problem=kreska pseudotaktowa	!	!	!	!	!	!	!	!	!	!	!	!	!
2D/	-tum	-tis	-tro	-ce	-ni	-ae	2A/	-tum	-tis	-tro	-ce	-ni	-ae	2f\	-tum	-tis	-tro	-ce	-ni	-ae	4dd\	-tum	-tis	-tro	-ce	-ni	-ae
!	!	!	!	!	!	!	!	!	!	!	!	!	!	!	!	!	!	!	!	!	!LO:TX:a:t=P:problem=kreska pseudotaktowa	!	!	!	!	!	!
.	.	.	.	.	.	.	.	.	.	.	.	.	.	.	.	.	.	.	.	.	4cc\	.	.	.	.	.	.
2.E\	de-	ve-	poe-	Sa-	ſce-	glo-	4G#X/	de-	Ve-	poe-	Sa-	Sce-	glo-	2.e\	de-	Ve-	poe-	sa-	sce-	glo-	4b\	de-	ve-	poe-	sa-	sce-	glo-
.	.	.	.	.	.	.	2A/	.	.	.	.	.	.	.	.	.	.	.	.	.	4cc\	.	.	.	.	.	.
.	.	.	.	.	.	.	.	.	.	.	.	.	.	.	.	.	.	.	.	.	4.b\	.	.	.	.	.	.
4E\	-fi-	-ri-	-ni-	-pe-	-le-	-ri-	4G#/	-fi-	-ri-	-ni-	-pe-	-le-	-ri-	4e\	-fi-	-ri-	-ni-	-pe-	-le-	-ri-	.	.	.	.	.	.	.
.	.	.	.	.	.	.	.	.	.	.	.	.	.	.	.	.	.	.	.	.	8b\	-fi-	-ri-	-ni-	-pe-	-le-	-ri-
=13-	=13-	=13-	=13-	=13-	=13-	=13-	=13-	=13-	=13-	=13-	=13-	=13-	=13-	=13-	=13-	=13-	=13-	=13-	=13-	=13-	=13-	=13-	=13-	=13-	=13-	=13-	=13-
0AA;;	-cit	-us	-tens	-re	-re	-ae	0A	-cit	-us	-tens	-re	-re	-ae	0e;<	-cit	-us	-tens	-re	-re	-ae	0a;<	-cit	-us	-tens	-re	-re	-ae
==	==	==	==	==	==	==	==	==	==	==	==	==	==	==	==	==	==	==	==	==	==	==	==	==	==	==	==
*-	*-	*-	*-	*-	*-	*-	*-	*-	*-	*-	*-	*-	*-	*-	*-	*-	*-	*-	*-	*-	*-	*-	*-	*-	*-	*-	*-
!!!system-decoration: [s1,s2,s3,s4]
!!!RDF**kern: < = below
!!!ENC: Marta Lawrence
!!!END: 2021-03-02
!!!ENC: Andrzej Gręziak
!!!END: 2021-02-24
